packages/opendesign/src/icons/svgs/fill/list.svg

<?xml version="1.0" encoding="UTF-8"?>
<svg width="24px" height="24px" viewBox="0 0 24 24" version="1.1" xmlns="http://www.w3.org/2000/svg" xmlns:xlink="http://www.w3.org/1999/xlink">
    <title>list</title>
    <g id="list" stroke="none" stroke-width="1" fill="none" fill-rule="evenodd">
        <path d="M4,17 C4.55228475,17 5,17.4477153 5,18 C5,18.5522847 4.55228475,19 4,19 C3.44771525,19 3,18.5522847 3,18 C3,17.4477153 3.44771525,17 4,17 Z M20.4615385,17.3 C20.8481378,17.3 21.1615385,17.6134007 21.1615385,18 C21.1615385,18.3543827 20.8981948,18.6472582 20.5565243,18.6936098 L20.4615385,18.7 L7.53846154,18.7 C7.15186221,18.7 6.83846154,18.3865993 6.83846154,18 C6.83846154,17.6456173 7.10180516,17.3527418 7.44347568,17.3063902 L7.53846154,17.3 L20.4615385,17.3 Z M4,11 C4.55228475,11 5,11.4477153 5,12 C5,12.5522847 4.55228475,13 4,13 C3.44771525,13 3,12.5522847 3,12 C3,11.4477153 3.44771525,11 4,11 Z M20.4615385,11.3 C20.8481378,11.3 21.1615385,11.6134007 21.1615385,12 C21.1615385,12.3543827 20.8981948,12.6472582 20.5565243,12.6936098 L20.4615385,12.7 L7.53846154,12.7 C7.15186221,12.7 6.83846154,12.3865993 6.83846154,12 C6.83846154,11.6456173 7.10180516,11.3527418 7.44347568,11.3063902 L7.53846154,11.3 L20.4615385,11.3 Z M4,5 C4.55228475,5 5,5.44771525 5,6 C5,6.55228475 4.55228475,7 4,7 C3.44771525,7 3,6.55228475 3,6 C3,5.44771525 3.44771525,5 4,5 Z M20.4615385,5.3 C20.8481378,5.3 21.1615385,5.61340068 21.1615385,6 C21.1615385,6.35438271 20.8981948,6.64725823 20.5565243,6.69360983 L20.4615385,6.7 L7.53846154,6.7 C7.15186221,6.7 6.83846154,6.38659932 6.83846154,6 C6.83846154,5.64561729 7.10180516,5.35274177 7.44347568,5.30639017 L7.53846154,5.3 L20.4615385,5.3 Z" id="path1" fill="#000000"></path>
    </g>
</svg>

<!-- Generated by IcoMoon.io -->
<svg version="1.1" xmlns="http://www.w3.org/2000/svg" width="24" height="24" viewBox="0 0 24 24">
<title>list</title>
<path d="M4 17c0.552 0 1 0.448 1 1s-0.448 1-1 1c-0.552 0-1-0.448-1-1s0.448-1 1-1zM20.462 17.3c0.387 0 0.7 0.313 0.7 0.7 0 0.354-0.263 0.647-0.605 0.694l-0.095 0.006h-12.923c-0.387 0-0.7-0.313-0.7-0.7 0-0.354 0.263-0.647 0.605-0.694l0.095-0.006h12.923zM4 11c0.552 0 1 0.448 1 1s-0.448 1-1 1c-0.552 0-1-0.448-1-1s0.448-1 1-1zM20.462 11.3c0.387 0 0.7 0.313 0.7 0.7 0 0.354-0.263 0.647-0.605 0.694l-0.095 0.006h-12.923c-0.387 0-0.7-0.313-0.7-0.7 0-0.354 0.263-0.647 0.605-0.694l0.095-0.006h12.923zM4 5c0.552 0 1 0.448 1 1s-0.448 1-1 1c-0.552 0-1-0.448-1-1s0.448-1 1-1zM20.462 5.3c0.387 0 0.7 0.313 0.7 0.7 0 0.354-0.263 0.647-0.605 0.694l-0.095 0.006h-12.923c-0.387 0-0.7-0.313-0.7-0.7 0-0.354 0.263-0.647 0.605-0.694l0.095-0.006h12.923z"></path>
</svg>
